icon/io/tablet-portrait.svg

<svg xmlns="http://www.w3.org/2000/svg" width="512" height="512"><path d="M384 512H128a64.07 64.07 0 0 1-64-64V64a64.07 64.07 0 0 1 64-64h256a64.07 64.07 0 0 1 64 64v384a64.07 64.07 0 0 1-64 64ZM128 32a32 32 0 0 0-32 32v384a32 32 0 0 0 32 32h256a32 32 0 0 0 32-32V64a32 32 0 0 0-32-32Z"/><path d="M384 0a64.07 64.07 0 0 1 64 64v384a64.07 64.07 0 0 1-64 64H128a64.07 64.07 0 0 1-64-64V64a64.07 64.07 0 0 1 64-64h256M128 480h256a32 32 0 0 0 32-32V64a32 32 0 0 0-32-32H128a32 32 0 0 0-32 32v384a32 32 0 0 0 32 32m0-16a16 16 0 0 1-16-16V64a16 16 0 0 1 16-16h256a16 16 0 0 1 16 16v384a16 16 0 0 1-16 16Z"/></svg>

<svg xmlns="http://www.w3.org/2000/svg" viewBox="0 0 512 512" height="1em" width="1em">
  <path d="M384,512H128a64.07,64.07,0,0,1-64-64V64A64.07,64.07,0,0,1,128,0H384a64.07,64.07,0,0,1,64,64V448A64.07,64.07,0,0,1,384,512ZM128,32A32,32,0,0,0,96,64V448a32,32,0,0,0,32,32H384a32,32,0,0,0,32-32V64a32,32,0,0,0-32-32Z"/>
  <path d="M384,0a64.07,64.07,0,0,1,64,64V448a64.07,64.07,0,0,1-64,64H128a64.07,64.07,0,0,1-64-64V64A64.07,64.07,0,0,1,128,0H384M128,480H384a32,32,0,0,0,32-32V64a32,32,0,0,0-32-32H128A32,32,0,0,0,96,64V448a32,32,0,0,0,32,32m0-16a16,16,0,0,1-16-16V64a16,16,0,0,1,16-16H384a16,16,0,0,1,16,16V448a16,16,0,0,1-16,16Z"/>
</svg>
